web/packages/design/src/ResourceIcon/assets/wiz-dark.svg

<svg width="72" height="72" viewBox="0 0 72 72" fill="none" xmlns="http://www.w3.org/2000/svg">
<g clip-path="url(#clip0_17688_5710)">
<path d="M21.6472 34.0313C21.6969 34.138 21.8495 34.1343 21.8918 34.024L25.8078 23.8156C25.8989 23.5785 26.0595 23.3743 26.2685 23.2299C26.4776 23.0855 26.7254 23.0076 26.9794 23.0063L30.6305 22.9861C30.8346 22.9847 31.036 23.0329 31.2175 23.1265C31.3989 23.2201 31.5549 23.3562 31.6721 23.5234C31.7893 23.6905 31.8642 23.8836 31.8904 24.086C31.9166 24.2884 31.8932 24.4942 31.8224 24.6857L22.8319 48.5205C22.5135 49.3165 21.642 48.8888 21.3952 48.2936L16.6828 36.9356C16.6308 36.8208 16.5473 36.7231 16.442 36.6538C16.3367 36.5844 16.214 36.5463 16.088 36.5438C15.9619 36.5413 15.8378 36.5745 15.7299 36.6396C15.6219 36.7048 15.5346 36.7991 15.4781 36.9117L9.5701 48.7295C9.55843 48.7526 9.54034 48.7718 9.51801 48.7848C9.49568 48.7979 9.47005 48.8042 9.44421 48.803C9.41837 48.8019 9.39342 48.7933 9.37236 48.7783C9.35129 48.7633 9.33501 48.7425 9.32546 48.7184L0.0846285 24.6912C0.0108516 24.5 -0.0152614 24.2938 0.00854665 24.0902C0.0323547 23.8867 0.105367 23.6921 0.221274 23.5231C0.33718 23.3541 0.492493 23.2159 0.673787 23.1204C0.855081 23.025 1.0569 22.9751 1.26181 22.9751H5.22926C5.75163 22.9751 6.2225 23.2988 6.40643 23.7862L10.3205 34.0221C10.3629 34.1325 10.5192 34.138 10.567 34.0313L15.5001 23.2933C15.5534 23.177 15.6389 23.0786 15.7465 23.0095C15.8541 22.9405 15.9793 22.9037 16.1071 22.9037C16.235 22.9037 16.3601 22.9405 16.4677 23.0095C16.5753 23.0786 16.6608 23.177 16.7141 23.2933L21.6472 34.0313ZM66.5896 13.3185C66.5602 13.1751 66.253 13.1751 66.2217 13.3185C65.9936 14.4369 65.5173 16.1235 64.6215 17.0193C63.7257 17.915 62.0391 18.3914 60.9207 18.6195C60.7773 18.6508 60.7773 18.958 60.9207 18.9874C62.0391 19.2173 63.7257 19.6937 64.6215 20.5876C65.7913 21.7593 66.1941 23.3576 66.3321 24.3178C66.3431 24.3785 66.5344 24.3877 66.5454 24.327C66.7551 23.2969 67.2334 21.5459 68.1917 20.5894C69.0874 19.6937 70.7741 19.2173 71.8924 18.9874C72.0359 18.958 72.0359 18.6508 71.8924 18.6195C70.7741 18.3914 69.0874 17.915 68.1917 17.0193C67.2959 16.1235 66.8195 14.4369 66.5896 13.3185ZM33.281 24.3803C33.281 23.6814 33.8457 23.1167 34.5428 23.1167H38.3576C39.0565 23.1167 39.6212 23.6814 39.6212 24.3785V47.7381C39.6212 48.4352 39.0547 48.9999 38.3576 48.9999H34.5428C34.2081 48.9999 33.8872 48.8669 33.6506 48.6303C33.4139 48.3937 33.281 48.0727 33.281 47.7381V24.3785V24.3803ZM50.6352 29.7972C50.6606 29.7464 50.6726 29.69 50.67 29.6332C50.6675 29.5765 50.6505 29.5214 50.6206 29.4731C50.5907 29.4248 50.549 29.385 50.4994 29.3573C50.4498 29.3297 50.394 29.3152 50.3372 29.3153H42.7959C42.6301 29.3153 42.4658 29.2826 42.3126 29.219C42.1594 29.1555 42.0202 29.0624 41.903 28.945C41.7858 28.8277 41.6929 28.6884 41.6296 28.5351C41.5663 28.3818 41.5339 28.2175 41.5341 28.0516V24.3803C41.5341 23.6832 42.0988 23.1185 42.7959 23.1185H60.1887C60.7295 23.1185 61.4542 23.5581 61.1966 24.0327L51.1465 42.8344L51.1447 42.8381C51.1182 42.8889 51.1053 42.9457 51.107 43.0029C51.1088 43.0602 51.1252 43.1161 51.1548 43.1651C51.1843 43.2142 51.2259 43.2549 51.2757 43.2833C51.3255 43.3117 51.3817 43.3269 51.439 43.3273H60.6265C61.3236 43.3273 61.8882 43.8939 61.8882 44.591V47.7362C61.8882 48.4352 61.3236 48.9999 60.6265 48.9999H42.1779C41.5709 48.9999 41.4495 48.117 41.7217 47.5725L50.6352 29.7972Z" fill="white"/>
</g>
<defs>
<clipPath id="clip0_17688_5710">
<rect width="72" height="72" fill="white" transform="translate(0 0.000976562)"/>
</clipPath>
</defs>
</svg>

<svg xmlns="http://www.w3.org/2000/svg" width="72" height="72" fill="none" viewBox="0 0 72 72"><g clip-path="url(#a)"><path fill="#fff" d="M21.647 34.031c.05.107.203.103.245-.007l3.916-10.208a1.26 1.26 0 0 1 1.171-.81l3.652-.02a1.262 1.262 0 0 1 1.191 1.7l-8.99 23.835c-.319.795-1.19.368-1.437-.227l-4.712-11.358a.667.667 0 0 0-1.205-.024L9.57 48.73a.134.134 0 0 1-.198.048.13.13 0 0 1-.047-.06L.085 24.691a1.262 1.262 0 0 1 1.177-1.716h3.967c.523 0 .994.324 1.177.811l3.914 10.236c.043.11.2.116.247.01l4.933-10.74a.668.668 0 0 1 1.214 0zM66.59 13.32c-.03-.144-.337-.144-.368 0-.228 1.118-.705 2.804-1.6 3.7s-2.583 1.372-3.701 1.6c-.144.032-.144.339 0 .368 1.118.23 2.805.707 3.7 1.6 1.17 1.172 1.573 2.77 1.711 3.73.011.061.202.07.213.01.21-1.03.688-2.781 1.647-3.738.895-.895 2.582-1.372 3.7-1.602.144-.029.144-.336 0-.367-1.118-.229-2.805-.705-3.7-1.6-.896-.896-1.372-2.583-1.602-3.701M33.28 24.38c0-.699.565-1.263 1.262-1.263h3.815a1.26 1.26 0 0 1 1.263 1.261v23.36c0 .697-.566 1.262-1.263 1.262h-3.815a1.26 1.26 0 0 1-1.262-1.262v-23.36zm17.354 5.417a.333.333 0 0 0-.298-.482h-7.541a1.26 1.26 0 0 1-1.262-1.263V24.38c0-.697.565-1.261 1.262-1.261h17.393c.54 0 1.265.44 1.008.914l-10.05 18.801-.002.004a.335.335 0 0 0 .294.49h9.188c.697 0 1.261.566 1.261 1.263v3.145c0 .7-.564 1.264-1.261 1.264h-18.45c-.606 0-.727-.883-.455-1.428z"/></g><defs><clipPath id="a"><path fill="#fff" d="M0 .001h72v72H0z"/></clipPath></defs></svg>
